X: 20825
T: Johnny's
R: reel
M: 4/4
K: Ddorian
|:A2BG AD~D2|AGAB cedB|cAGE ~C3D|ECEG cedc|
A2BG AD~D2|AGAB c2Gc|edce dcde|1 cAGE DEFG:|2 cAGE D3z||
|:A2dc Ad~d2|AGAB cedB|cAGE ~C3D|ECEG cedc|
A2dc Ad~d2|AGAB c2Gc|edce dcde|1 cAGE D3z:|2 cAGE DEFG||
K: Ador
|:e2fd eA~A2|edef gbaf|gedB ~G3A|BGBd gbag|
e2fd eA~A2|edef g2dg|bagb agab|1 gedB ABcd:|2 gedB A3z||
|:e2ag ea~a2|edef gbaf|gedB ~G3A|BGBd gbag|
e2ag ea~a2|edef g2dg|bagb agab|1 gedB A3z:|2 gedB ABcd||

